img/header/cart-icon.svg

<svg width="11" height="11" viewBox="0 0 11 11" fill="none" xmlns="http://www.w3.org/2000/svg">
<path d="M5.08127 0.555126L3.2142 3.66666H7.7858L5.918 0.555126L6.54867 0.178192L8.64087 3.66666H10.4845C10.769 3.66666 11 3.89766 11 4.18219V4.50413C11 6.66288 10.4974 8.79198 9.53187 10.7228C9.49018 10.8061 9.42612 10.8762 9.34685 10.9252C9.26758 10.9741 9.17624 11 9.08307 11H1.91693C1.8237 10.9999 1.73234 10.9738 1.65308 10.9247C1.57382 10.8756 1.50978 10.8055 1.46813 10.7221C0.502632 8.79125 -1.72126e-05 6.66215 4.42075e-10 4.50339L4.42076e-10 4.18219C4.42076e-10 3.89766 0.231 3.66666 0.515533 3.66666H2.35913L4.45133 0.178192L5.08053 0.555126H5.08127Z" fill="#976464"/>
</svg>

<svg xmlns="http://www.w3.org/2000/svg" width="11" height="11" fill="none">
  <path fill="#976464" d="M5.081.555 3.214 3.667h4.572L5.918.555l.63-.377 2.093 3.489h1.844c.284 0 .515.23.515.515v.322c0 2.159-.503 4.288-1.468 6.219a.502.502 0 0 1-.449.277H1.917a.502.502 0 0 1-.449-.278A13.904 13.904 0 0 1 0 4.503v-.32c0-.285.231-.516.516-.516h1.843L4.451.178l.63.377Z"/>
</svg>
